!!!COM: Scarlatti, Domenico
!!!CDT: 1685///-1757///
!!!OTL: Sonata in B Minor, K.408, L.346
!!!SCT: K. 408
!!!SCT: L. 346
**kern	**kern	**dynam
*staff2	*staff1	*staff1/2
*Icemba	*Icemba	*Icemba
*>[A,A,B,B]	*>[A,A,B,B]	*>[A,A,B,B]
*>norep[A,B]	*>norep[A,B]	*>norep[A,B]
*>A	*>A	*>A
*clefF4	*clefG2	*clefG2
*k[f#c#]	*k[f#c#]	*k[f#c#]
*b:	*b:	*b:
*M2/2	*M2/2	*M2/2
*MM208	*MM208	*MM208
=1-	=1-	=1-
1r	4r	.
.	(8ff#\L	mf
.	8dd\J	.
.	4b\)	.
.	4f#'/	.
=2	=2	=2
1r	(8b\L	<
.	8a#\	.
.	8cc#\	.
.	8b\J	.
.	8dd\L	.
.	8cc#\	.
.	8ee\	.
.	8dd\J	.
=3	=3	=3
4r	2.ff#\)	mf
8f#\L	.	.
8d\J	.	.
4B'\	.	.
4F#'\	(4ee\	.
=4	=4	=4
8B\L	4dd\)	.
8A#\	.	.
8c#\	(2cc#\	<
8B\J	.	.
8d\L	.	.
8c#\	.	.
8e\	[4b\	.
8d\J	.	.
=5	=5	=5
4f#\	8b\L]	>
.	8a#\)	<
(2e\	(8a#\	.
.	8b\J	.
.	8cc#\L	.
.	8dd\	.
4d\	8ee\	.
.	8ff#\J)	.
=6	=6	=6
4c#\	8ff#\L	>
.	8gg\	.
4B\	8gg\	.
.	8ff#\J	.
4A#\	8ff#\L	.
.	8ee\	.
4F#\	8dd\	.
.	8cc#\J	.
=7	=7	=7
8B\L	4dd\	<
8A#\)	.	.
(8A#\	4r	.
8B\J	.	.
8c#\L	2r	.
8d\	.	.
8e\	.	.
8f#\J)	.	.
=8	=8	=8
8f#\L	2r	.
8g\	.	.
8g\	.	.
8f#\J	.	.
8f#\L	8r	.
8e\	(8cc#\L	>
8d\	8b\	.
8c#\J	8a#\J	.
=9	=9	=9
2.d\	8b\L	p
.	8ff#\)	.
.	(8ff#\	.
.	8b\J)	.
.	(8b/L	.
.	8an/	.
4B'\	8g/	.
.	8f#/J	.
=10	=10	=10
4e\	8g\L	.
.	8ee\)	.
4d\	(8ee\	.
.	8a\J)	.
4c#\	(8a/L	.
.	8g/	.
4A\	8f#/	.
.	8e/J	.
=11	=11	=11
2d\	8f#\L)	.
.	8aa'\	mf
.	(8aa\	.
.	8dd\J)	.
4r	(8dd\L	.
.	8cc#\)	.
4f#'\	(8cc#\	.
.	8b\J)	.
=12	=12	=12
(4g\	(8b\L	.
.	8bb\)	.
4f#\	(8bb\	.
.	8ee\J)	.
4e\	(8ee\L	.
.	8dd\)	.
4g\)	(8dd\	.
.	8cc#\J)	.
=13	=13	=13
8A\L	(4cc#\	.
8G#\	.	.
8B\	4dd\	p
8A\J	.	.
8c#\L	4ee\	.
8B\	.	.
8d\	4ff#\	.
8D\J	.	.
=14	=14	=14
[2A\	8ee\L	.
.	8dd\	.
.	8cc#\	.
.	8b\J	.
8A\L]	8a/)	mf
(8g\	8r	.
8f#\	4r	.
8e\J	.	.
=15	=15	=15
2d\)	8r	.
.	8dd\L	.
.	8cc#\	.
.	8dd\J	.
4e'\	8gg\L	.
.	8ee\	.
4g'\	8dd\	.
.	8cc#\J	.
=16	=16	=16
4f#\	(8cc#\L	.
.	8dd\	.
4d\	8cc#\	.
.	8dd\J	.
4e'\	8gg\L	.
.	8ee\	.
4g'\	8dd\	.
.	8cc#\J	.
=17	=17	=17
(8f#\L	2dd\)	p
8d\	.	.
8c#\	.	.
8d\J	.	.
8g\L	4r	.
8e\	.	.
8d\	4gg'\	.
8c#\J)	.	.
=18	=18	=18
(8c#\L	2ff#\	.
8d\	.	.
8c#\	.	.
8d\J	.	.
8g\L	4r	.
8e\	.	.
8d\	4gg'\	.
8c#\J	.	.
=19	=19	=19
4d'\)	4ff#'\	.
*clefG2	*	*
(4dd\	12ddd\L	f
.	12ccc#\	.
.	12ddd\J	.
4cc#\	12aa\L	.
.	12gg#\	.
.	12aa\J	.
4a/	12ee\L	.
.	12ff#\	.
.	12ggn\J	.
=20	=20	=20
4d'/)	4ff#'\	.
(12dd\L	4r	.
12cc#\	.	.
12dd\J	.	.
12a/L	2r	.
12g#/	.	.
12a/J	.	.
12e/L	.	.
12f#/	.	.
12gn/J	.	.
=21	=21	=21
4f#'/)	4r	.
(4d/	12ddd\L	.
.	12ccc#\	.
.	12ddd\J	.
4c#/	12aa\L	.
.	12gg#\	.
.	12aa\J	.
4A/	12ee\L	.
.	12ff#\	.
.	12ggn\J	.
=22	=22	=22
4d/)	12ff#\L	.
.	12gg\	.
.	12aa\J	.
*clefF4	*	*
(4G\	12gg\L	.
.	12ff#\	.
.	12ee\J	.
4A'\)	4dd'\	.
4AA'/	4cc#'\	.
=23	=23	=23
4D'\	4dd'\	.
12d\L	(4ff#\	p
12c#\	.	.
12d\J	.	.
12A\L	4ee\	.
12G#\	.	.
12A\J	.	.
12D/L	4dd\	.
12C#/	.	.
12D/J	.	.
=24	=24	=24
4AA'/	4ee'\)	.
12A\L	4ee\ (4gg\	<
12G#\	.	.
12A\J	.	.
12D/L	4dd\ 4ff#\	.
12C#/	.	.
12D/J	.	.
12AA/L	4cc#\ 4ee\	.
12GG#/	.	.
12AA/J	.	.
=25	=25	=25
4DD'/	4dd'\)	.
12d\L	(4ff#\	.
12c#\	.	.
12d\J	.	.
12A\L	4ee\	.
12G#\	.	.
12A\J	.	.
12D/L	4dd\	.
12C#/	.	.
12D/J	.	.
=26	=26	=26
4AA'/	4ee'\)	.
(12A\L	4ee\ (4gg\	.
12G#\	.	.
12A\J	.	.
12D/L	4dd\ 4ff#\	.
12C#/	.	.
12D/J	.	.
12AA/L	4cc#\ 4ee\)	.
12GG#/	.	.
12AA/J	.	.
=27	=27	=27
*	*^	*
4DD'/)	12ff#/L	4dd\	f
.	12gg/	.	.
.	12aa/J	.	.
(4G\	4r	12gg\L	.
.	.	12ff#\	.
.	.	12ee\J	.
4A'\)	4r	4dd'\	.
4AA'/	4r	4cc#'\	.
=28	=28	=28	=28
(4B\	2.dd/	(12dd\L	.
.	.	12a\	.
.	.	12cc#\J	.
4G\	.	12b\L	.
.	.	12a\	.
.	.	12g\J	.
4A'\)	.	4f#'\)	.
4AA'/	4r	4e'\ 4cc#'\	.
*	*v	*v	*
=29	=29	=29
.	8e/q 8cc#'/q	.
2DD/ 2D/	2d/) 2dd/	.
2r	2r	.
=30:|!|:	=30:|!|:	=30:|!|:
*>B	*>B	*>B
2DD/ 2D/	4d'/ 4dd'/	f
.	(12d/L	.
.	12c#/	.
.	12d/J	.
2r	12f#/L	.
.	12e/	.
.	12f#/J)	.
.	(4f#/ 4dd/	>
=31	=31	=31
4r	4e/) 4cc#/	.
4AA/ 4A/	4f#\ (4dd#\	<
4GG/ 4G/	4g\ 4ee\	.
4FF#/ 4F#/	4a\ 4ff#\	.
=32	=32	=32
2EE/ 2E/	4b'\ 4gg'\)	.
.	(12e/L	.
.	12d#/	.
.	12e/J	.
2r	12g/L	.
.	12f#/	.
.	12g/J)	.
.	(4g/ 4ee/	>
=33	=33	=33
4r	4f#/) 4dd/	.
(4BB\ 4B\	4g#\ (4ee#\	<
4AA\ 4A\	4a\ 4ff#\	.
4GG#/ 4G#/	4b\ 4gg#\)	.
=34	=34	=34
4FF#/) 4F#/	12aa\L	f
.	12cc#\	.
.	12aa\J	.
(4GG#/ 4G#/	12gg#\L	.
.	12b\	.
.	12gg#\J	.
4AA/ 4A/	12ff#\L	.
.	12a\	.
.	12ff#\J	.
4AA#/ 4A#/	12ee\L	.
.	12gn\	.
.	12ee\J	.
=35	=35	=35
4BB\ 4B\	12dd/L	.
.	12f#/	.
.	12dd/J	.
4C#\ 4c#\	12cc#/L	.
.	12e#/	.
.	12cc#/J	.
4D\) 4d\	12b/L	.
.	12a/	.
.	12g#/J	.
4D'\ 4d'\	12f#/L	.
.	12e#/	.
.	12f#/J	.
=36	=36	=36
2C#\ 2c#\	8e#/L	.
.	(8cc#/	p
.	8b/	.
.	8cc#/J	.
4r	8dd/L	.
.	8b/	.
*clefG2	*	*
4c#'/ 4e#'/	8a/	.
.	8g#/J	.
=37	=37	=37
*^	*	*
4f#/	2c#\	8a/L)	.
.	.	(8cc#/	.
4e#/	.	8b/	.
.	.	8cc#/J	.
4r	4r	8dd/L	.
.	.	8b/	.
4c#'/ 4e#'/	4r	8a/	.
.	.	8g#/J	.
=38	=38	=38	=38
4f#/	2c#\	8a/L	<
.	.	8cc#/	.
4en/	.	8b/	.
.	.	8cc#/J	.
4r	4r	8ee/L	.
.	.	8cc#/	.
4c#'/ 4e'/ 4g'/	4r	8b/	.
.	.	8a#/J	.
*v	*v	*	*
=39	=39	=39
4d/ 4f#/	8b/L)	.
.	(8cc#/	.
4c#/ 4e/	8b/	.
.	8cc#/J	.
4r	8ee\L	.
.	8cc#\	.
4c#'/ 4e'/ 4g'/	8b\	.
.	8a#\J	.
=40	=40	=40
4d/ 4f#/	8b\L)	mf
.	(8ff#\	.
4B/ 4d/	8ee\	.
.	8ff#\J	.
4r	8gg\L	.
.	8ee\	.
4A#'/ 4c#'/	8dd\	.
.	8cc#\J	.
=41	=41	=41
4B/ 4d/	8dd\L)	.
.	(8ff#\	.
4A#/ 4c#/	8ee\	.
.	8ff#\J	.
4r	8gg\L	.
.	8ee\	.
4A#'/ 4c#'/	8dd\	.
.	8cc#\J	.
=42	=42	=42
8B/L	4dd\)	.
8A#/	.	.
8c#/	(4ee\	.
8B/J	.	.
8d/L	4ff#\	.
8c#/	.	.
8e/	4gg\	.
8d/J	.	.
=43	=43	=43
8f#/L	4ff#'\)	.
8e/	.	.
8g/	(2ee\	.
8f#/J	.	.
8a#/L	.	.
8f#/	.	.
8b/	4dd\	.
8B/J	.	.
*clefF4	*	*
=44	=44	=44
[2F#\	8cc#/L	>
.	8b/	.
.	8a#/	.
.	8g#/J	.
8F#\L]	8f#/)	.
(8e\	8r	.
8d\	4r	.
8c#\J	.	.
=45	=45	=45
2B\)	8r	.
.	8b\L	mf
.	8a#\	.
.	8b\J	.
4r	8ee\L	.
.	8cc#\	.
4c#'\ 4e'\	8b\	.
.	8a#\J	.
=46	=46	=46
4d\	(8a#\L	.
.	8b\	.
4B\	8a#\	.
.	8b\J	.
4r	8ee\L	.
.	8cc#\	.
4c#'\ 4e'\	8b\	.
.	8a#\J	.
=47	=47	=47
(8d\L	2b\)	p
8B\	.	.
8A#\	.	.
8B\J	.	.
8e\L	4r	.
8c#\	.	.
8B\	4ee'\	.
8A#\J)	.	.
=48	=48	=48
(8A#\L	2dd\	.
8B\	.	.
8A#\	.	.
8B\J	.	.
8e\L	4r	.
8c#\	.	.
8B\	4ee'\	.
8A#\J	.	.
=49	=49	=49
4B\)	4dd'\	.
*clefG2	*	*
(4b\	12bb\L	f
.	12aa#\	.
.	12bb\J	.
4a#/	12ff#\L	.
.	12ee\	.
.	12ff#\J	.
4f#/	12cc#\L	.
.	12dd\	.
.	12ee\J	.
=50	=50	=50
4B/)	4dd\	.
(12b/L	4r	.
12a#/	.	.
12b/J	.	.
12f#/L	2r	.
12e/	.	.
12f#/J	.	.
12c#/L	.	.
12d/	.	.
12e/J	.	.
=51	=51	=51
4d'/)	4r	.
*clefF4	*	*
(4B\	12bb\L	.
.	12aa#\	.
.	12bb\J	.
4A#\	12ff#\L	.
.	12ee\	.
.	12ff#\J	.
4F#\	12cc#\L	.
.	12dd\	.
.	12ee\J	.
=52	=52	=52
4B\	12dd\L	.
.	12ee\	.
.	12ff#\J	.
4E\	12ee\L	.
.	12dd\	.
.	12cc#\J	.
4F#'\)	4b'/	.
4FF#'/	4a#'/	.
=53	=53	=53
4BB'/	4b'/	.
12g\L	(4dd\	p
12a#\	.	.
12g\J	.	.
12f#\L	4cc#\	.
12e\	.	.
12f#\J	.	.
12B\L	4b\	.
12A#\	.	.
12B\J	.	.
=54	=54	=54
4F#'\	4cc#'\)	.
12f#\L	4cc#\ (4ee\	<
12e\	.	.
12f#\J	.	.
12B\L	4b\ 4dd\	.
12A#\	.	.
12B\J	.	.
12F#\L	4a#\ 4cc#\	.
12E\	.	.
12F#\J	.	.
=55	=55	=55
4BB'/	4b'\)	.
12B\L	(4dd\	.
12A#\	.	.
12B\J	.	.
12F#\L	4cc#\	.
12E\	.	.
12F#\J	.	.
12BB/L	4b\	.
12AA#/	.	.
12BB/J	.	.
=56	=56	=56
4FF#'/	4cc#'\)	.
(12F#\L	4cc#\ (4ee\	.
12E\	.	.
12F#\J	.	.
12BB/L	4b\ 4dd\	.
12AA#/	.	.
12BB/J	.	.
12FF#/L	4a#\ 4cc#\)	.
12EE/	.	.
12FF#/J	.	.
=57	=57	=57
*	*^	*
4BB/	12dd/L	4b\	f
.	12ee/	.	.
.	12ff#/J	.	.
4E\	4r	12ee\L	.
.	.	12dd\	.
.	.	12cc#\J	.
4F#'\)	4b'/	4r	.
4FF#'/	4a#'/	4r	.
*	*v	*v	*
=58	=58	=58
(4G\	(12b/L	.
.	12e/	.
.	12f#/J	.
4E\	12g/L	.
.	12f#/	.
.	12e/J	.
4F#'\)	4d'/) 4b'/	.
4FF#'/	4c#'/ 4a#'/	.
=59	=59	=59
.	8c#/q 8a#'/q	.
2BBB/ 2BB/	2B/) 2b/	.
2r	2r	.
==:|!	==:|!	==:|!
*-	*-	*-
!!!ENC: Craig Stuart Sapp
!!!END: 2004/11/03/
